X:1
T:Cembalo Sonata C Major
T:Cembalo Sonata D Major
T:K. 346
T:Domenico Scarlatti (1685-1757)
C:Domenico Scarlatti (1685-1757)
%%score { ( 1 3 ) | 2 }
L:1/8
Q:1/4=96
M:3/8
K:D
V:1 treble nm="Cembalo" snm="Cbl."
V:3 treble 
V:2 bass 
V:1
"^Allegro" a3 | f3 | b/a/g/f/e/d/ | c/B/A/g/f/e/ | dfa- | a/g/f/e/d/c/ | Bcd | e PG2 | Ff/e/d/e/ | %9
 Ge/d/c/d/ | Af/e/d/e/ | Ge/d/c/d/ | Af/e/d/c/ | B/f/e/d/c/B/ | ce/d/c/d/ | ^Gd/c/B/c/ | %16
 Ae/d/c/d/ | ^Gd/c/B/c/ | Aa/^g/f/g/ | Aa/^g/f/g/ | ^g/f/e/d/c/B/ | cdB | cdB | cdB | cde | fge | %26
 fge | f/e/d/c/B/A/ | ^G/B/A/c/B/d/ | c/e/d/e/f/A/ | P^G>FE | z/ ^A/B/A/B/c/ | z/ c/d/c/d/e/ | %33
 z/ f/e/d/c/B/ | c/^G/A/G/A/B/ | z/ B/c/B/c/d/ | z/ e/f/e/f/^g/ | a/e/c/d/e/c/ | f/d/c/B/A/B/ | %39
 c/^G/A/G/A/B/ | z/ B/c/B/c/d/ | z/ e/f/e/f/^g/ | a/e/c/d/e/c/ | f/d/c/B/A/B/ | c/B/A/^G/A/E/ | %45
 B/^G/d/B/e/d/ | c/B/A/^G/A/E/ | B/^G/d/B/e/d/ | c/B/A/^G/ a/e/ | f/d/c/B/A/^G/ | A3 :: Pe3 | Pc3 | %53
 f/e/d/c/B/^A/ | e/d/c/B/^A/B/ | P^A>^GF | z c/B/^A/B/ | Fd/c/B/c/ | Gc/B/^A/B/ | Fd/c/B/c/ | %60
 =Af/e/^d/e/ | Bg/f/e/f/ | =cf/e/^d/e/ | Bg/f/e/f/ | =cf/e/^d/e/ | B/^d/e/d/e/f/ | z/ f/g/f/g/a/ | %67
 z/ b/a/g/f/e/ | fge | fge | f/e/d/=c/B/A/ | B=cA | B=cA | B/d/^c/e/d/f/ | e/g/f/a/b/d/ | Pc>BA | %76
 z/ ^d/e/d/e/f/ | z/ f/g/f/g/a/ | z/ b/a/g/f/e/ | f/c/d/c/d/e/ | z/ e/f/e/f/g/ | z/ a/b/a/b/c'/ | %82
 d'/a/f/g/a/f/ | b/g/f/e/d/e/ | f/c/d/c/d/e/ | z/ e/f/e/f/g/ | z/ a/b/a/b/c'/ | d'/a/f/g/a/f/ | %88
 b/g/f/e/d/e/ | f/e/d/c/d/A/ | e/c/g/e/a/g/ | f/e/d/c/d/A/ | e/c/g/e/a/g/ | f/e/d/c/ d'/a/ | %94
 b/g/f/e/d/e/ | f/e/d/c/d/A/ | B/G/F/E/D/C/ | D3 :| %98
V:2
 z3 | z3 | z3 | z3 | F3 | D3 | G/F/E/D/C/B,/ | A,B,C | D2 F | EA,E | FA,F | EA,E | FA,F | ^GEG | %14
 A,E,A, | B,E,B, | CE,C | DE,D | CA,C | ^DB,D |[K:treble] EF^G | A/E/B/E/^G/E/ | A/E/B/E/^G/E/ | %23
 A/E/B/E/^G/E/ | A/=G/F/E/D/C/ |[K:bass] D/A,/E/A,/C/A,/ | D/A,/E/A,/C/A,/ | D2 ^D | EC^G, | %29
 A,F,D, | E, E,,2 | EDC | B,A,^G, | F,^G,E, | A,,A,^G, | F,E,D, | C,A,B,, | A,,B,,C, | D,E,E,, | %39
 A,,A,^G, | F,E,D, | C,A,B,, | A,,B,,C, | D,E,E,, | A,,B,,C, | D,E,E,, | A,,B,,C, | D,E,E,, | %48
 A,,B,,C, | D,E,E,, | A,,3 :: z3 | A,3 | F,3 | G,E,G, | F, F,,2 | EF,E | DF,D | EF,E | DF,D | %60
 ^DB,F | GB,G | AB,A | GB,G | AB,A | G2 F | E2 D | CA,C | D/A,/E/A,/C/A,/ | D/A,/E/A,/C/A,/ | DEF | %71
[K:treble] G/D/A/D/F/D/ | G/D/A/D/F/D/ | GEF |[K:bass] CDG, | A, A,,2 | AGF | EE,D | CA,C | D,DC | %80
 B,A,G, | F,DE, | D,E,F, | G,A,A,, | D,DC | B,A,G, | F,DE, | D,E,F, | G,A,A,, | D,E,F, | G,A,A,, | %91
 D,E,F, | G,A,A,, | D,E,F, | G,A,A,, | D,E,F, | G,A,A,, | D,,3 :| %98
V:3
 x3 | x3 | x3 | x3 | x3 | x3 | x3 | x3 | x3 | x3 | x3 | x3 | x3 | x3 | x3 | x3 | x3 | x3 | x3 | %19
 x3 | x3 | x3 | x3 | x3 | x3 | A3 | A3 | x3 | x3 | x3 | x3 | x3 | x3 | x3 | x3 | x3 | x3 | x3 | %38
 x3 | x3 | x3 | x3 | x3 | x3 | x3 | x3 | x3 | x3 | x3 | x3 | x3 :: x3 | x3 | x3 | x3 | x3 | x3 | %57
 x3 | x3 | x3 | x3 | x3 | x3 | x3 | x3 | x3 | x3 | x3 | A3 | A3 | x3 | x3 | x3 | x3 | x3 | x3 | %76
 x3 | x3 | x3 | x3 | x3 | x3 | x3 | x3 | x3 | x3 | x3 | x3 | x3 | x3 | x3 | x3 | x3 | x3 | x3 | %95
 x3 | x3 | x3 :| %98

